!!!COM: Palestrina, Giovanni Perluigi da
!!!OPR: Quando lieta sperai
!!!OTL: Agnus I
**kern	**kern	**kern	**kern	**kern
*Ibass	*Ibarit	*Itenor	*Icalto	*Icant
!Bassus	!Baritone	!Tenor	!Altus	!Cantus
*clefF4	*clefF4	*clefGv2	*clefG2	*clefG2
*k[]	*k[]	*k[]	*k[]	*k[]
*A:aeo	*A:aeo	*A:aeo	*A:aeo	*A:aeo
*M4/2	*M4/2	*M4/2	*M4/2	*M4/2
=1	=1	=1	=1	=1
0r	1e	0r	0r	1e
.	2d	.	.	2f
.	2c	.	.	2e
=2	=2	=2	=2	=2
0r	2d	1r	1r	2f
.	2e	.	.	2g
.	1A	2r	1e	1a
.	.	2e	.	.
=3	=3	=3	=3	=3
0r	0r	2d	2f	1a
.	.	2c	2e	.
.	.	2d	2f	1b
.	.	2e	2g	.
=4	=4	=4	=4	=4
0r	2r	1A	1a	4cc
.	.	.	.	4b
.	2e	.	.	4a
.	.	.	.	4g
.	2d	1r	1a	4f
.	.	.	.	4g
.	2c	.	.	[2a
=5	=5	=5	=5	=5
0r	2d	1r	1b	2a]
.	2e	.	.	2g#
.	1A	2r	4cc	[1a
.	.	.	4b	.
.	.	2e	4a	.
.	.	.	4g	.
=6	=6	=6	=6	=6
2r	2r	2d	2f	1a]
2A	2A	2c	2e	.
2G	2B	1d	2g	1r
2F	2A	.	2a	.
=7	=7	=7	=7	=7
2G	2B	1e	2g	1r
2A	2c	.	2e	.
1D	1d	2d	1f	1a
.	.	2a	.	.
=8	=8	=8	=8	=8
0r	2G	2g	1d	2b
.	2d	2f	.	2a
.	2G	2g	2r	2b
.	2A	2e	2a	2cc
=9	=9	=9	=9	=9
0r	1.B-	1d	2g	1.dd
.	.	.	2f	.
.	.	1r	2g	.
.	2A	.	2a	2cc
=10	=10	=10	=10	=10
0r	2G	0r	2d	2b-
.	2F	.	2f	2a
.	1G	.	2e	2g
.	.	.	[2d	2f
=11	=11	=11	=11	=11
2r	1A	2r	2d]	1e
2A	.	2A	2c	.
2G	2r	2B	1d	1r
2F	[2d	2A	.	.
=12	=12	=12	=12	=12
2G	2d]	2B	1e	0r
2A	2c	2c	.	.
1D	2B	2.d	1f	.
.	[2A	.	.	.
.	.	4c	.	.
=13	=13	=13	=13	=13
1E	2A]	1B	2e	1b
.	2G#	.	1e	.
1AA	1A	1A	.	1cc#
.	.	.	[2f#	.
=14	=14	=14	=14	=14
0r	2r	1d	2f#]	1dd
.	1G	.	2.g	.
.	.	1e	.	2b
.	.	.	4f	.
.	[2A	.	4e	[2cc
.	.	.	4d	.
=15	=15	=15	=15	=15
1r	2A]	2f	2c	2cc]
.	1B	2.g	2d	4b
.	.	.	.	4a
1E	.	.	2e	2g
.	.	4f	.	.
.	2G	4e	2g	2b
.	.	4d	.	.
=16	=16	=16	=16	=16
1F	2A	4c	2.f	1a
.	.	4B	.	.
.	1c	2A	.	.
.	.	.	4e	.
1G	.	2B	1d	1g
.	2B	[2d	.	.
=17	=17	=17	=17	=17
1C	2c	4d]	2.e	1r
.	.	4c	.	.
.	1e	2.c	.	.
.	.	.	4f	.
2.G	.	.	[1g	2r
.	.	4B	.	.
.	[2d	2B	.	2b
4F	.	.	.	.
=18	=18	=18	=18	=18
2E	4d]	2G	2g]	1cc
.	4c	.	.	.
2F	1c	2A	4f	.
.	.	.	4e	.
1D	.	2F	2f	1dd
.	2B	[2f	2d	.
=19	=19	=19	=19	=19
2C	1c	4f]	0r	1g
.	.	4e	.	.
2.c	.	2e	.	.
.	1G	1d	.	2.dd
4B	.	.	.	.
2B	.	.	.	.
.	.	.	.	4cc
=20	=20	=20	=20	=20
2G	1r	2e	2r	2b
2A	.	2c	2e	2cc
1D	2r	[1d	1f#	1a
.	2A	.	.	.
=21	=21	=21	=21	=21
2r	2B	2d]	1g	2g
2E	1c	2g	.	2e
1F	.	2.f	1c	2a
.	2A	.	.	2cc
.	.	4e	.	.
=22	=22	=22	=22	=22
2G	2B	2d	2.g	1b
2G	2.d	2B	.	.
.	.	.	4f	.
2A	.	1c	2e	1a
.	4c	.	.	.
2F	[2c	.	2f	.
=23	=23	=23	=23	=23
1G	2c]	1r	1d	0g
.	2B	.	.	.
2C	2c	2r	1e	.
[2c	[2e	[2g	.	.
=24	=24	=24	=24	=24
2c]	2e]	2g]	0r	0r
2B	2d	2g	.	.
2A	2c	2f	.	.
2G	2B	2e	.	.
=25	=25	=25	=25	=25
2.A	2.c	2f	0r	0r
.	.	2e	.	.
4G	4B	.	.	.
2F	2A	4d	.	.
.	.	4c	.	.
2E	2G	2e	.	.
=26	=26	=26	=26	=26
1F	1A	2d	2r	2r
.	.	4c	1a	1cc
.	.	4d	.	.
1E	1r	1e	.	.
.	.	.	2g	2b
=27	=27	=27	=27	=27
0r	0r	1r	2f	2a
.	.	.	2e	2g
.	.	2r	2.f	2.a
.	.	[2d	.	.
.	.	.	4e	4g
=28	=28	=28	=28	=28
1r	1r	2d]	2d	2f
.	.	2c	2A	2e
[1D	2r	2B	1d	2.f
.	[2F	2A	.	.
.	.	.	.	4e
=29	=29	=29	=29	=29
2D]	4F]	2B	2r	2d
.	4F	.	.	.
2C	2E	2A	2A	2e
2BB	2D	2G#	2B	1r
2AA	2E	[2A	2c	.
=30	=30	=30	=30	=30
1BB	2D	2A]	2.d	1r
.	1d	2G#	.	.
.	.	.	4e	.
2AA	.	1A	2f	2r
[2A	2c	.	2e	[2cc
=31	=31	=31	=31	=31
2A]	2A	0r	1e	2cc]
2G	2B	.	.	2b
2F	[1c	.	1r	2a
2E	.	.	.	2g
=32	=32	=32	=32	=32
4F	2c]	2r	2r	0a
4E	.	.	.	.
4D	2d	1f	1d	.
4E	.	.	.	.
4F	1A	.	.	.
4G	.	.	.	.
2A	.	2e	2c	.
=33	=33	=33	=33	=33
2D	1r	2d	2f	0a
2A	.	2c	2e	.
1D	2r	2.d	2.f	.
.	[2d	.	.	.
.	.	4c	4e	.
=34	=34	=34	=34	=34
1r	2d]	2B	2d	0r
.	2c	2A	2e	.
1D	2B	2.d	[1f	.
.	2A	.	.	.
.	.	4c	.	.
=35	=35	=35	=35	=35
1D	2.d	2B	1f]	0r
.	.	2A	.	.
.	4c	.	.	.
2E	2B	2G#	2e	.
2F	2A	[2A	2d	.
=36	=36	=36	=36	=36
1E	2B	2A]	[0e	1r
.	2.e	2G#	.	.
2AA	.	1A	.	[1cc
.	4d	.	.	.
[2A	4c	.	.	.
.	4B	.	.	.
=37	=37	=37	=37	=37
2A]	2A	1r	1e]	2cc]
2G	2B	.	.	2b
2F	2.c	2r	1r	2a
2E	.	[2c	.	2g
.	4B	.	.	.
=38	=38	=38	=38	=38
2.F	1A	2c]	2r	2.a
.	.	2c	1a	.
4E	.	.	.	4g
2D	1A	2d	.	2f
2C#	.	2e	2a	2e
=39	=39	=39	=39	=39
0D	0A	2.f	2.a	4d
.	.	.	.	4e
.	.	.	.	4f
.	.	4e	4g	4g
.	.	1d	1f	1a
=40	=40	=40	=40	=40
0AA	0A	0c#	0e	0a
==	==	==	==	==
*-	*-	*-	*-	*-
!!!CDT: 1525/^1526/-1594/2/2
!!!OCY: Italia
!!!AGN: Mass (Parody)
!!!AST: renaissance, vocal
!!!ASW: Madrigal 1548 (anon (Rore, Morales))
!!!PWK: Masses, Book 11
!!!RNB: Cadence finals: G,E
!!!YOR: Le Opere Complete, v. 28, p. 73
!!!YOO: Rome, Italy: Fratelli Scalera
!!!END: 1992//
!!!EED: John Miller
!!!YEC: Copyright 2000, John Miller
!!!YEN: United States of America
!!!YEM: Rights to all derivative electronic formats reserved.
!!!YEM: Refer to licensing agreement for further details.
!!!YEM: This file must be accompanied by the licensing agreement.
!!!YEM: A copy of the licensing agreement may be found at http://www.music-cog.ohio-state.edu/HumdrumDatabases/Palestrina/license.txt
!!!EMD: converted to Humdrum by Bret Aarden
